X:0
T:Dancing the Baby
G:jig
M:6/8
L:1/8
Q:3/8=120
K:AMix
% both f and g are missing
e|cee dee|cee dcB|cee dee|AAA cBA|
  cee dee|cee dcB|AAc BBc|AAA A2:|
e|acc ecc|acc dcB|acc dcB|AAA cBA|
  acc ecc|acc dcB|AAc BBc|AAA A2:|

Many east European melodies are constructed by repeating a narrow-range
tune transposed by a fifth to make a full-range one.  This is a Hungarian
example, shifting the same primitive arch phrase down from A minor to F
to D dorian:

